!!!COM: Corelli, Arcangelo
!!!OTL: Sonate a tre [in C]
!!!XEN: Trio Sonata Opus 1, No. 7
!!!OPS: Opus 1
!!!ONM: No. 7
!!!OMV: Movement 1.
!!!YEC: Copyright 1994, Center for Computer Assisted Research in the Humanities
!!!YEM: Rights to all derivative electronic formats reserved.
!!!YEM: Refer to licensing agreement for further details.
!! For the following instrumentation: Violino I & II, Violone/Archlute,
!!    and Organo.
!! Allegro.
**kern	**kern	**kern	**kern
*ICklav	*ICstr	*ICstr	*ICstr
*Iorgan	*Icello	*Ivioln	*Ivioln
*	*Iarchl	*	*
!Organo	!Violone	!Violin 2	!Violin 1
!	! or	!	!
!	!Archlute	!	!
*clefF4	*clefF4	*clefG2	*clefG2
*k[]	*k[]	*k[]	*k[]
*C:	*C:	*C:	*C:
*M4/4	*M4/4	*M4/4	*M4/4
*MM66	*MM66	*MM66	*MM66
=1-	=1-	=1-	=1-
4C/	1r	1r	4cc\
4r	.	.	16r
.	.	.	16dd\LL
.	.	.	16ee\
.	.	.	16ff\JJ
4C/	.	.	8gg\L
.	.	.	8ee\
4r	.	.	8ff\
.	.	.	8dd\J
=2	=2	=2	=2
4C/	1r	1r	8ee\L
.	.	.	8cc\
4r	.	.	8ccc\
.	.	.	8ccc\J
4C/	.	.	8ccc\L
.	.	.	8gg\
4r	.	.	8ccc\
.	.	.	8ccc\J
=3	=3	=3	=3
4C/	1r	1r	8ccc\L
.	.	.	8cc\
4E\	.	.	8gg\
.	.	.	8ee\J
4F\	.	.	16aa\LL
.	.	.	16gg\
.	.	.	16ff\
.	.	.	16ee\JJ
4G\	.	.	16dd\LL
.	.	.	16ee\
.	.	.	16ff\
.	.	.	16gg\JJ
=4	=4	=4	=4
2C/	1r	2r	8ee\L
.	.	.	8cc\J
.	.	.	16ee\LL
.	.	.	16dd\
.	.	.	16ee\
.	.	.	16ff#\JJ
2GG/	.	4g/	8gg\L
.	.	.	8dd\J
.	.	16r	[4gg\
.	.	16a\LL	.
.	.	16b\	.
.	.	16cc\JJ	.
=5	=5	=5	=5
4BB/	1r	8dd\L	4gg\]
.	.	8b\	.
4AA/	.	8cc\	4ff#\
.	.	8a\J	.
2GG/	.	8b\L	4gg\
.	.	8g\	.
.	.	8gg\	8r
.	.	8gg\J	8g/
=6	=6	=6	=6
4BB/	1r	8gg\L	8dd\L
.	.	8dd\	8b\J
8C/L	.	8gg\	8ee\L
16BB/L	.	8gg\J	(16dd\L
16AA/JJ	.	.	16cc\JJ)
2GG/	.	8gg\L	8b\L
.	.	8g\	8dd\
.	.	8dd\	8b\
.	.	8b\J	8dd\J
=7	=7	=7	=7
4C/	1r	16ee\LL	16cc/LL
.	.	16dd\	16b/
.	.	16cc\	16a/
.	.	16b\JJ	16g/JJ
4D\	.	16a\LL	16f#/LL
.	.	16b\	16g/
.	.	16cc\	16a/
.	.	16dd\JJ	16b/JJ
4GG/	.	8b/L	8g/L
.	.	8g/J	8b/J
4r	.	16a/LL	16cc\LL
.	.	16g/	16b\
.	.	16a/	16cc\
.	.	16b/JJ	16dd\JJ
=8	=8	=8	=8
4C/	4C/	8cc/L	4.ee\
.	.	8g/J	.
16r	16r	[4cc\	.
16D\LL	16D\LL	.	.
16E\	16E\	.	8ee\
16F\JJ	16F\JJ	.	.
8G\L	8G\L	4.cc\]	8dd\L
8E\	8E\	.	8ee\J
8F\	8F\	.	8.dd\L
8D\J	8D\J	8b\	.
.	.	.	16dd\Jk
=9	=9	=9	=9
8E\L	8E\L	4cc\	16cc\LL
.	.	.	16dd\
8C\J	8C\	.	16ee\
.	.	.	16ff\JJ
4c\	8c\	4r	16gg\LL
.	.	.	16aa\
.	8c\J	.	16gg\
.	.	.	16ff\JJ
4C/	8c\L	16cc\LL	4ee\
.	.	16dd\	.
.	8G\	16ee\	.
.	.	16ff\JJ	.
4c\	8c\	16gg\LL	4r
.	.	16aa\	.
.	8c\J	16gg\	.
.	.	16ff\JJ	.
=10	=10	=10	=10
4C/	8c\L	4ee\	8r
.	8C\	.	16gg\LL
.	.	.	16ff\JJ
4E\	8G\	8r	8ee\L
.	8E\J	16gg\LL	16ee\L
.	.	16ff\JJ	16dd\JJ
4A\	16A\LL	8ee\L	8cc\L
.	16G\	.	.
.	16F\	8ee\J	8cc\J
.	16E\JJ	.	.
4D\	16D\LL	8.ff\L	8.cc\L
.	16E\	.	.
.	16F\	.	.
.	16G\JJ	16dd\Jk	16b\Jk
=11	=11	=11	=11
8E\L	8E\L	8cc\L	4cc\
8C\	8C\J	(16ee\L	.
.	.	16dd\JJ)	.
8E\	16E\LL	8cc\L	4r
.	16D\	.	.
8F#\J	16E\	(16b\L	.
.	16F#\JJ	16a\JJ)	.
4G\	4G\	8b\L	4gg\
.	.	8dd\J	.
4E\	4E\	[4gg\	16r
.	.	.	16aa\LL
.	.	.	16bb\
.	.	.	16ccc\JJ
=12	=12	=12	=12
2D\	2D\	4.gg\]	8ddd\L
.	.	.	8bb\
.	.	.	8ccc\
.	.	8ff#\	8aa\J
4G\	4G\	4gg\	8bb\L
.	.	.	8gg\J
4F\	4F\	4r	16aa\LL
.	.	.	16gg\
.	.	.	16aa\
.	.	.	16bb\JJ
=13	=13	=13	=13
4E\	4E\	4cc\	8ccc\L
.	.	.	8gg\J
4A\	4A\	16r	[4ccc\
.	.	16dd\LL	.
.	.	16ee\	.
.	.	16ff\JJ	.
4G\	4G\	8gg\L	4.ccc\]
.	.	8ee\	.
4GG/	4GG/	8ff\	.
.	.	8dd\J	8bb\
=14	=14	=14	=14
4C/	4C/	8ee\L	4.ccc\
.	.	8cc\J	.
4r	4r	16ee\LL	.
.	.	16dd\	.
.	.	16ee\	8ccc\
.	.	16ff#\JJ	.
4G\	4G\	8gg\L	4.bb\
.	.	8dd\J	.
16r	16r	[4gg\	.
16A\LL	16A\LL	.	.
16B\	16B\	.	8bb\
16c\JJ	16c\JJ	.	.
=15	=15	=15	=15
8d\L	8d\L	4.gg\]	8aa\L
8B\	8B\	.	8bb\J
8c\	8c\	.	8.aa\L
8A\J	8A\J	8ff#\	.
.	.	.	16aa\Jk
4B\	4B\	4gg\	16gg\LL
.	.	.	16dd\
.	.	.	16ee\
.	.	.	16ff\JJ
4G\	4G\	4b\	16gg\LL
.	.	.	16aa\
.	.	.	16gg\
.	.	.	16aa\JJ
=16	=16	=16	=16
4A\	4A\	4cc\	16ff\LL
.	.	.	16ee\
.	.	.	16ff\
.	.	.	16gg\JJ
4B\	4B\	4dd\	16ff\LL
.	.	.	16aa\
.	.	.	16gg\
.	.	.	16ff\JJ
4c\	4c\	16g/LL	4ee\
.	.	16g/	.
.	.	16a/	.
.	.	16b/JJ	.
4C/	4C/	16cc\LL	4ee\
.	.	16dd\	.
.	.	16cc\	.
.	.	16dd\JJ	.
=17	=17	=17	=17
4D\	4D\	16b-\LL	4ff\
.	.	16a\	.
.	.	16b-\	.
.	.	16cc\JJ	.
4E\	4E\	16b-\LL	4gg\
.	.	16dd\	.
.	.	16cc\	.
.	.	16b-\JJ	.
2F\	2F\	16a\LL	16cc\LL
.	.	16a\	16cc\
.	.	16bn\	16dd\
.	.	16cc\JJ	16ee\JJ
.	.	16dd\LL	16ff\LL
.	.	16ee\	16gg\
.	.	16dd\	16ff\
.	.	16cc\JJ	16ee\JJ
=18	=18	=18	=18
2G\	2G\	16b\LL	16dd\LL
.	.	16b\	16dd\
.	.	16cc\	16ee\
.	.	16dd\JJ	16ff\JJ
.	.	16ee\LL	16gg\LL
.	.	16ff\	16aa\
.	.	16ee\	16gg\
.	.	16dd\JJ	16ff\JJ
2C/	2C/	16cc\LL	16ee\LL
.	.	16dd\	16ff\
.	.	16ee\	16gg\
.	.	16ff\JJ	16aa\JJ
.	.	16ee\LL	16gg\LL
.	.	16ff\	16aa\
.	.	16ee\	16gg\
.	.	16ff\JJ	16aa\JJ
=19	=19	=19	=19
2D\	2D\	16dd\LL	16ff\LL
.	.	16cc\	16ee\
.	.	16dd\	16ff\
.	.	16ee\JJ	16gg\JJ
.	.	16dd\LL	16ff\LL
.	.	16ee\	16gg\
.	.	16dd\	16ff\
.	.	16ee\JJ	16gg\JJ
4.E\	4.E\	16cc\LL	16ee\LL
.	.	16b\	16dd\
.	.	16cc\	16ee\
.	.	16dd\JJ	16ff\JJ
.	.	16cc\LL	16ee\LL
.	.	16ee\	16gg\
8F\	8F\	16dd\	16ff\
.	.	16cc\JJ	16ee\JJ
=20	=20	=20	=20
4G\	4G\	8b\	8dd\L
.	.	4g/	8b\J
8E\L	8E\L	.	16cc\LL
.	.	.	16dd\
8C\J	8C\J	8cc\	16ee\
.	.	.	16ff\JJ
4G\	4G\	4.cc\	8gg\L
.	.	.	8ee\
4GG/	4GG/	.	8ff\
.	.	8b\	8dd\J
=21	=21	=21	=21
4C/	4C/	4cc\	8ee\L
.	.	.	8cc\
4r	4r	4r	8ccc\
.	.	.	8ccc\J
4C/	2r	2r	8ccc\L
.	.	.	8gg\
4r	.	.	8ccc\
.	.	.	8ccc\J
=22	=22	=22	=22
4C/	1r	4r	8ccc\L
.	.	.	8ee\J
4r	.	8gg\L	8r
.	.	8gg\J	8g/
4BB/	.	8gg\L	8dd\L
.	.	8dd\	8b\J
8C/L	.	8gg\	8ee\L
16BB/L	.	8gg\J	(16dd\L
16AA/JJ	.	.	16cc\JJ)
=23	=23	=23	=23
4GG/	4r	8gg\L	8b/L
.	.	8b\J	8g/J
4r	8c\L	8r	8r
.	8c\J	8cc\	8ee\
4C/	8c\L	8ee\L	8gg\L
.	8G\	8ee\J	8gg\J
4r	8c\	16ee\LL	16gg\LL
.	.	16ff\	16aa\
.	8c\J	16ee\	16gg\
.	.	16dd\JJ	16ff\JJ
=24	=24	=24	=24
4C/	8c\L	8cc\L	8ee\L
.	8C\	8ee\	8cc\
4E\	8c\	8ee\	8gg\
.	8E\J	8ee\J	8gg\J
4A\	4A\	8ee\L	8gg\L
.	.	8dd\	8ff\
4D\	4D\	8dd\	8ff\
.	.	8dd\J	8ff\J
=25	=25	=25	=25
4G\	4G\	8dd\L	8ff\L
.	.	8cc\	8ee\
4C/	4C/	8cc\	8ee\
.	.	8cc\J	8ee\J
2F\	2F\	8cc\L	8ee\L
.	.	(16b\L	(16dd\L
.	.	16a\JJ)	16cc\JJ)
.	.	8.b/L	8dd\L
.	.	.	(16cc\L
.	.	16a/Jk	16dd\JJ)
=26	=26	=26	=26
4.E\	4.E\	4.g#/	4.ee\
8C/	8C/	8e/	8ee\
8D\L	8D\L	8f#/L	4.dd\
8E\	8E\	8g#/	.
8F\	8F\	8a/	.
8D\J	8D\J	8a/J	8cc\
=27	=27	=27	=27
4E\	4E\	4.a/	16b\LL
.	.	.	16ee\
.	.	.	16dd\
.	.	.	16cc\JJ
4EE/	4EE/	.	8.b/L
.	.	8g#/	.
.	.	.	16a/Jk
2AA/	2AA/	4a/	16a\LL
.	.	.	16ee\
.	.	.	16ff#\
.	.	.	16gg\JJ
.	.	4r	16aa\LL
.	.	.	16bb\
.	.	.	16gg\
.	.	.	16aa\JJ
=28	=28	=28	=28
2D\	2D\	16r	4ff#\
.	.	16a\LL	.
.	.	16b\	.
.	.	16cc\JJ	.
.	.	16dd\LL	4r
.	.	16ee\	.
.	.	16cc\	.
.	.	16dd\JJ	.
2GG/	2GG/	4b\	16r
.	.	.	16dd\LL
.	.	.	16ee\
.	.	.	16ff#\JJ
.	.	4r	16gg\LL
.	.	.	16aa\
.	.	.	16ffn\
.	.	.	16gg\JJ
=29	=29	=29	=29
2C/	2C/	16r	4ee\
.	.	16g/LL	.
.	.	16a/	.
.	.	16b/JJ	.
.	.	16cc\LL	4r
.	.	16dd\	.
.	.	16b\	.
.	.	16cc\JJ	.
2FF/	2FF/	16a\LL	16r
.	.	16a\	16cc\LL
.	.	16b\	16dd\
.	.	16cc\JJ	16ee\JJ
.	.	16dd\LL	16ff\LL
.	.	16ee\	16gg\
.	.	16cc\	16ee\
.	.	16dd\JJ	16ff\JJ
=30	=30	=30	=30
2GG/	16GG\LL	2b\	2dd\
.	16D\	.	.
.	16E\	.	.
.	16F\JJ	.	.
.	16G\LL	.	.
.	16A\	.	.
.	16F\	.	.
.	16G\JJ	.	.
4C/	8E\L	2cc\	4ee\
.	8C\J	.	.
4AA/	16AA/LL	.	[4ff\
.	16BB/	.	.
.	16C/	.	.
.	16AA/JJ	.	.
=31	=31	=31	=31
4BB-/	4BB-/	2dd\	4ff\]
4BBn/	16BBn/LL	.	2gg\
.	16C/	.	.
.	16D/	.	.
.	16BB/JJ	.	.
4C/	8C\L	4ee\	.
.	8c\J	.	.
4AA/	16A\LL	[4ff\	4aa\
.	16B-\	.	.
.	16c\	.	.
.	16A\JJ	.	.
=32	=32	=32	=32
4BB-/	16B-\LL	4ff\]	2gg\
.	16c\	.	.
.	16d\	.	.
.	16B-\JJ	.	.
4C/	8c\L	4ee\	.
.	8C\J	.	.
4F\	4F\	8ff\L	4ff\
.	.	8cc\J	.
4D\	4D\	[4ff\	16r
.	.	.	16gg\LL
.	.	.	16aa\
.	.	.	16bb-\JJ
=33	=33	=33	=33
2C/	2C/	4.ff\]	8ccc\L
.	.	.	8aa\
.	.	.	8bb-\
.	.	8ee\	8gg\J
2F\	2F\	4ff\	8aa\L
.	.	.	8ff\J
.	.	4r	16aa\LL
.	.	.	16gg\
.	.	.	16aa\
.	.	.	16bbn\JJ
=34	=34	=34	=34
4E\	4E\	4cc\	8ccc\L
.	.	.	8gg\J
4A\	4A\	16r	[4ccc\
.	.	16dd\LL	.
.	.	16ee\	.
.	.	16ff\JJ	.
4G\	4G\	8gg\L	4.ccc\]
.	.	8ee\	.
4GG/	4GG/	8ff\	.
.	.	8dd\J	8bb\
=35	=35	=35	=35
2C/	2C/	8ee\L	4ccc\
.	.	8cc\J	.
.	.	16ee\LL	4r
.	.	16dd\	.
.	.	16ee\	.
.	.	16ff\JJ	.
4BB/	4BB/	8gg\L	4g/
.	.	8dd\J	.
4E\	4E\	4gg\	16r
.	.	.	16a\LL
.	.	.	16b\
.	.	.	16cc\JJ
=36	=36	=36	=36
2D\	2D\	4.gg\	8dd\L
.	.	.	8b\
.	.	.	8cc\
.	.	8ff#\	8a\J
4GG/	4GG/	8gg\L	8b/L
.	.	8b\J	8g/J
4r	4r	16cc\LL	16a/LL
.	.	16b\	16g/
.	.	16cc\	16a/
.	.	16dd\JJ	16b/JJ
=37	=37	=37	=37
4C/	4C/	4.ee\	8cc/L
.	.	.	8g/J
16r	16r	.	[4cc\
16D\LL	16D\LL	.	.
16E\	16E\	8ee\	.
16F\JJ	16F\JJ	.	.
8G\L	8G\L	8dd\L	4.cc\]
8E\	8E\	8ee\J	.
8F\	8F\	8.dd\L	.
8D\J	8D\J	.	8b\
.	.	16dd\Jk	.
=38	=38	=38	=38
8E\L	8E\L	4.cc\	8cc\L
8C\J	8C\J	.	8ee\J
4c\	4c\	.	[4aa\
.	.	8cc\	.
4.B\	4.B\	4.dd\	8aa\L]
.	.	.	(16gg\L
.	.	.	16ff\JJ)
.	.	.	[4gg\
16A\LL	16A\LL	(16cc\LL	.
16G\JJ	16G\JJ	16b\JJ)	.
=39	=39	=39	=39
4.A\	4.A\	4.cc\	8gg\L]
.	.	.	(16ff\L
.	.	.	16ee\JJ)
.	.	.	2ff\
16G\LL	16G\LL	(16b/LL	.
16F\JJ	16F\JJ	16a/JJ)	.
2G\	2G\	8b/L	.
.	.	8g/J	.
.	.	[4cc\	4ee\
=40	=40	=40	=40
2GG/	2GG/	4cc\]	2dd\
.	.	4b\	.
2C/	2C/	2cc\	2cc\
==	==	==	==
*-	*-	*-	*-
!!!CDT: 1653/2/17/-1713/1/8
!!!OCY: Italia
!!!ODE: Queen Christina Alexandra of Sweden
!!!ODT: 1681//
!!!OPC: Roma; Rome
!!!AGN: trio sonata
!!!AST: baroque, chamber
!!!AMT: simple quadruple
!!!YOR1: J. Joachim & F. Chrysander (eds.) Les Oeuvre de Arcangelo Corelli
!!!YOR2: London: Augener & Co. 1871
!!!YOY: 1871
!!!AIN: archl cello organ violn
!!!EEV: 1.1
!!!RDT: 1993 August 31
!!!YER: 1994 December 14
!!!EMD: 1996 July 9
!!!YEN: United States of America
!!!EFL: 1/3
!!!ENC: Frances Bennion & Steven Rasmussen
!!!EED: W.B. Hewlett
!!!VTS: 3129925159
